remix/Finance/funds-box-fill.svg

<svg viewBox="0 0 24 24" fill="currentColor" xmlns="http://www.w3.org/2000/svg"><path d="M3.00488 3.00281H21.0049C21.5572 3.00281 22.0049 3.45052 22.0049 4.00281V20.0028C22.0049 20.5551 21.5572 21.0028 21.0049 21.0028H3.00488C2.4526 21.0028 2.00488 20.5551 2.00488 20.0028V4.00281C2.00488 3.45052 2.4526 3.00281 3.00488 3.00281ZM14.7978 9.7957L12.348 12.2454L10.2267 10.1241L5.98407 14.3668L7.39828 15.781L10.2267 12.9526L12.348 15.0739L16.212 11.2099L18.0049 13.0028V8.00281H13.0049L14.7978 9.7957Z"/></svg>

<svg viewBox="0 0 24 24" xmlns="http://www.w3.org/2000/svg"><path fill="none" d="M0 0h24v24H0Z"/><path d="M3 3h18v0c.55 0 1 .44 1 1v16 0c0 .55-.45 1-1 1H3v0c-.56 0-1-.45-1-1V4v0c0-.56.44-1 1-1Zm11.793 6.79l-2.45 2.45 -2.13-2.122L5.97 14.36l1.41 1.41 2.82-2.83 2.12 2.12 3.86-3.87 1.79 1.79v-5h-5l1.79 1.79Z"/></svg>
